X: 1
T: The Groom's Jig
P: Tune for "The Findlays' Jig"
C: Ian Findlay
B: Roy Goldring "14 Social Dances for 2000"
R: jig
Z: 2015 John Chambers <jc:trillian.mit.edu>
M: 6/8
L: 1/8
K: A
A |\
"A"E>Ac e<ae | "F#m"f>ae "A"c>BA | "A"E>Ac e<ae | "F#m"f>ec "E7"B2c |
"A"E>Ac e<ae | "F#m"f>ae "A"c>BA | "D"f>af "E7"e>dB | "A"c>A"D"A "A"A2 |]
e |\
"D"f>ed f<af | "A"e>dc e<ae | "D"f>ed f<af | "A"e>cA "E7"B2c |
"A"E>Ac e<ae | "F#m"f>ae "A"c>BA | "A"E>Ac "E7"e<aB |"A"c>A"D"A "A"A2 |]

%%sep 1 1 500
%%sep 1 1 500

